!! 00000] TT[00
!!!OTL: Xiao fangniu
!!!ARE: Asia, China,Hebei
!! Ethnic Group: Han
!! IV, 82
!!!SCT: C1169
!!!YEM: Copyright 1995, estate of Helmut Schaffrath.
**kern
*ICvox
*Ivox
*M2/4
*k[b-]
*F:
{8cc
8a
4cc
=1
8r
4dd
8cc
=2
8.a
16cc
8dd
8ff
=3
8cc
8a
4g}
=4
{8cc
8a
8.cc
16a
=5
8g
8cc
8a
8g
=6
8f
8g
8f
8d
=7
4.c
8d}
=8
{8f
8d
4f
=9
8r
4dd
8cc
=10
8.a
16cc
8dd
8ff
=11
8cc
8a
4g}
=12
{8cc
8a
8.cc
16a
=13
8g
8cc
8a
8g
=14
8.f
16g
8a
8cc
=15
8g
8f
8d
8f
=16
2c}
=17
{8cc
8a
8.cc
16a
=18
8g
8cc
8a
8g
=19
8.f
16g
8a
8cc
=20
8g
8f
8d
8f
=21
2c}
==
!!!AGN: Tanzlied, Xiaodiao
!!!ONB: ESAC (Essen Associative Code) Database: CHINA_034
!!!AMT: simple duple
!!!AIN: vox
!!!EED: Helmut Schaffrath
!!!EEV: 1.0
*-
